X: 4120
T: ROVER
R: Reel.
%R: reel
B: James Kerr "Merry Melodies" v.4 p.15 #120
Z: 2016 John Chambers <jc:trillian.mit.edu>
M: C|
L: 1/8
K: G	% and Em
ud |\
B2(GB) GBdB | A2(FA) FAdc |\
B2(GB) GBdB | AFDF FEE :|\
f |\
gfef gfge | BGAG B2E2 |
gfef gfge | eggb agef |\
gfef gfge | d2(BG) AGEG |\
cdcA BcBA | GBdf g3 |]

%%sep 1 1 500
%%sep 1 1 500

